Newaita-dark/apps/48/rygel.svg

<svg height="48pt" viewBox="0 0 48 48" width="48pt" xmlns="http://www.w3.org/2000/svg" xmlns:xlink="http://www.w3.org/1999/xlink"><linearGradient id="a" gradientUnits="userSpaceOnUse" x1="23.81478" x2="23.81478" y1="42.0509045" y2="44.03547050005"><stop offset="0" stop-opacity=".27451"/><stop offset="1" stop-opacity="0"/></linearGradient><linearGradient id="b"><stop offset="0" stop-opacity=".313725"/><stop offset=".222222" stop-opacity=".27451"/><stop offset="1" stop-opacity="0"/></linearGradient><radialGradient id="c" cx="450.908936" cy="189.579361" gradientTransform="matrix(.00000026 -.117199 -.210958 -.00000015 75.219128 95.392999)" gradientUnits="userSpaceOnUse" r="21.166656" xlink:href="#b"/><radialGradient id="d" cx="450.908936" cy="189.579361" gradientTransform="matrix(-.00000026 .117199 .210958 .00000015 -27.589573 -11.29122)" gradientUnits="userSpaceOnUse" r="21.166656" xlink:href="#b"/><radialGradient id="e" cx="450.908936" cy="189.579361" gradientTransform="matrix(-.00000026 -.117199 .210958 -.00000015 -27.589573 95.392999)" gradientUnits="userSpaceOnUse" r="21.166656" xlink:href="#b"/><radialGradient id="f" cx="450.908936" cy="189.579361" gradientTransform="matrix(.00000026 .117199 -.210958 .00000015 75.219126 -11.291219)" gradientUnits="userSpaceOnUse" r="21.166656" xlink:href="#b"/><linearGradient id="g" gradientTransform="matrix(.113024 0 0 .326118 -8.78102 50.462022)" gradientUnits="userSpaceOnUse" x1="288.395844" x2="288.395844" y1="-25.791676" y2="-141.414581"><stop offset="0" stop-color="#ef5350"/><stop offset="1" stop-color="#e57373"/></linearGradient><linearGradient id="h" gradientUnits="userSpaceOnUse" x1="1040.00008101837" x2="1040.00008101837" y1="1695.118238" y2="175.11804050918"><stop offset="0" stop-color="#eee"/><stop offset="1" stop-color="#e0e0e0"/></linearGradient><path d="m11.90625 42.050781h23.816406v1.984375h-23.816406zm0 0" fill="url(#a)"/><path d="m35.722656 42.050781h3.96875v-1.984375h-3.96875zm0 0" fill="url(#c)"/><path d="m11.90625 42.050781h-3.96875v1.984375h3.96875zm0 0" fill="url(#d)"/><path d="m11.90625 42.050781h-3.96875v-1.984375h3.96875zm0 0" fill="url(#e)"/><path d="m35.722656 42.050781h3.96875v1.984375h-3.96875zm0 0" fill="url(#f)"/><path d="m9.921875 4.34375h27.785156c1.097657 0 1.984375.890625 1.984375 1.984375v33.738281c0 1.097656-.886718 1.984375-1.984375 1.984375h-27.785156c-1.09375 0-1.984375-.886719-1.984375-1.984375v-33.738281c0-1.09375.890625-1.984375 1.984375-1.984375zm0 0" fill="url(#g)"/><path d="m574.275898 175.101398c28.973613 75.898268 37.319273 168.487856-9.605382 237.300186-79.047574 102.824832-36.846877 269.58057 83.299136 320.126927 111.642888 55.270315 258.558-15.431598 287.531612-136.050007 34.957294-105.974138-35.272224-230.529179-136.679868-261.864771-69.914587-24.72205-119.516152-89.755213-137.62466-159.512335zm578.684926 396.025195c-124.397575-1.732119-231.631435 122.665457-205.964594 245.803311 18.580904 129.279 171.637162 211.160949 290.365988 158.567543 74.48108-25.194446 112.430214-98.730734 138.097056-163.921363 39.523786-68.497399 124.712506-103.927088 204.547406-96.52622 8.503126 2.519445 14.959202 1.889583 19.998092-.787326v-94.794103c-38.264065-10.235243-116.839243 14.486807-150.536814 19.210765-76.685594 20.155557-149.749487-14.01441-211.79081-51.333683-24.879515-10.392709-52.121009-15.746529-78.890108-15.903994-1.889583-.157465-3.936632-.157465-5.826216-.31493zm-606.241351 239.977095c-94.006776-.944791-179.982822 72.434032-203.602615 157.937682-12.282292 14.486807-19.36823 29.603474-23.147397 45.822399v143.923271c83.928998-1.889583 138.726917 73.378823 222.81338 71.961636 129.121535 10.077778 244.228659-118.098965 218.246887-245.330916-16.218925-99.360595-109.753305-175.416329-209.743762-174.156606-1.574652 0-2.99184-.157466-4.566493-.157466zm420.589779 181.557475c-127.231951.944792-229.426922 135.105216-198.563725 258.558 13.542014 78.102782 81.252087 141.246362 151.324139 162.504175 78.890109 32.280384 117.626569 111.957819 137.62466 189.430739 8.975522 19.840626 9.447918 60.624135 16.533855 91.959727h86.605908c-.944792-29.760939-12.124827-68.025003-16.533855-89.282817-22.202606-74.796011-53.380732-153.528654-21.887675-231.15904 32.122918-63.45851 77.472921-131.483514 57.474829-209.1139-16.533855-96.52622-105.186811-172.896884-203.445149-172.739418-2.991841-.157466-6.141146-.157466-9.132987-.157466zm0 0" fill="url(#h)" stroke="#212121" stroke-linecap="round" stroke-width="11.338583" transform="scale(.0248071)"/><path d="m9.921875 41.9375c-1.097656 0-1.984375-.882812-1.984375-1.984375v-.246094c0 1.097657.886719 1.984375 1.984375 1.984375h27.785156c1.097657 0 1.984375-.886718 1.984375-1.984375v.246094c0 1.101563-.886718 1.984375-1.984375 1.984375zm0 0" fill-opacity=".196078"/><path d="m9.921875 4.457031c-1.097656 0-1.984375.882813-1.984375 1.984375v.246094c0-1.097656.886719-1.984375 1.984375-1.984375h27.785156c1.097657 0 1.984375.886719 1.984375 1.984375v-.246094c0-1.101562-.886718-1.984375-1.984375-1.984375zm0 0" fill="#fff" fill-opacity=".392157"/><path d="m9.921875 4.203125c-1.175781 0-2.125.949219-2.125 2.125v33.738281c0 1.175782.949219 2.125 2.125 2.125h27.785156c1.175781 0 2.125-.949218 2.125-2.125v-33.738281c0-1.175781-.949219-2.125-2.125-2.125zm0 .28125h27.785156c1.023438 0 1.84375.820313 1.84375 1.84375v33.738281c0 1.023438-.820312 1.84375-1.84375 1.84375h-27.785156c-1.023437 0-1.84375-.820312-1.84375-1.84375v-33.738281c0-1.023437.820313-1.84375 1.84375-1.84375zm0 0" fill="#212121"/></svg>

<?xml version="1.0" encoding="UTF-8"?>
<svg xmlns="http://www.w3.org/2000/svg" xmlns:xlink="http://www.w3.org/1999/xlink" width="48pt" height="48pt" viewBox="0 0 48 48" version="1.1">
<defs>
<linearGradient id="linear0" gradientUnits="userSpaceOnUse" x1="254" y1="233.5" x2="254" y2="254.666672" gradientTransform="matrix(0.093759,0,0,0.093759,-0.00000572259,20.158178)">
<stop offset="0" style="stop-color:rgb(0%,0%,0%);stop-opacity:0.27451;"/>
<stop offset="1" style="stop-color:rgb(0%,0%,0%);stop-opacity:0;"/>
</linearGradient>
<radialGradient id="radial0" gradientUnits="userSpaceOnUse" cx="450.908936" cy="189.579361" fx="450.908936" fy="189.579361" r="21.166656" gradientTransform="matrix(0.000000261256,-0.117199,-0.210958,-0.000000152308,75.219128,95.392999)">
<stop offset="0" style="stop-color:rgb(0%,0%,0%);stop-opacity:0.313725;"/>
<stop offset="0.222222" style="stop-color:rgb(0%,0%,0%);stop-opacity:0.27451;"/>
<stop offset="1" style="stop-color:rgb(0%,0%,0%);stop-opacity:0;"/>
</radialGradient>
<radialGradient id="radial1" gradientUnits="userSpaceOnUse" cx="450.908936" cy="189.579361" fx="450.908936" fy="189.579361" r="21.166656" gradientTransform="matrix(-0.000000261256,0.117199,0.210958,0.000000152308,-27.589573,-11.29122)">
<stop offset="0" style="stop-color:rgb(0%,0%,0%);stop-opacity:0.313725;"/>
<stop offset="0.222222" style="stop-color:rgb(0%,0%,0%);stop-opacity:0.27451;"/>
<stop offset="1" style="stop-color:rgb(0%,0%,0%);stop-opacity:0;"/>
</radialGradient>
<radialGradient id="radial2" gradientUnits="userSpaceOnUse" cx="450.908936" cy="189.579361" fx="450.908936" fy="189.579361" r="21.166656" gradientTransform="matrix(-0.000000261256,-0.117199,0.210958,-0.000000152308,-27.589573,95.392999)">
<stop offset="0" style="stop-color:rgb(0%,0%,0%);stop-opacity:0.313725;"/>
<stop offset="0.222222" style="stop-color:rgb(0%,0%,0%);stop-opacity:0.27451;"/>
<stop offset="1" style="stop-color:rgb(0%,0%,0%);stop-opacity:0;"/>
</radialGradient>
<radialGradient id="radial3" gradientUnits="userSpaceOnUse" cx="450.908936" cy="189.579361" fx="450.908936" fy="189.579361" r="21.166656" gradientTransform="matrix(0.000000261256,0.117199,-0.210958,0.000000152308,75.219126,-11.291219)">
<stop offset="0" style="stop-color:rgb(0%,0%,0%);stop-opacity:0.313725;"/>
<stop offset="0.222222" style="stop-color:rgb(0%,0%,0%);stop-opacity:0.27451;"/>
<stop offset="1" style="stop-color:rgb(0%,0%,0%);stop-opacity:0;"/>
</radialGradient>
<linearGradient id="linear1" gradientUnits="userSpaceOnUse" x1="288.395844" y1="-25.791676" x2="288.395844" y2="-141.414581" gradientTransform="matrix(0.113024,0,0,0.326118,-8.78102,50.462022)">
<stop offset="0" style="stop-color:rgb(93.72549%,32.54902%,31.372549%);stop-opacity:1;"/>
<stop offset="1" style="stop-color:rgb(89.803922%,45.098039%,45.098039%);stop-opacity:1;"/>
</linearGradient>
<linearGradient id="linear2" gradientUnits="userSpaceOnUse" x1="275.166656" y1="233.5" x2="275.166656" y2="-168.666672" gradientTransform="matrix(3.779528,0,0,3.779528,0,812.59845)">
<stop offset="0" style="stop-color:rgb(93.333333%,93.333333%,93.333333%);stop-opacity:1;"/>
<stop offset="1" style="stop-color:rgb(87.843137%,87.843137%,87.843137%);stop-opacity:1;"/>
</linearGradient>
</defs>
<g id="surface1">
<path style=" stroke:none;fill-rule:nonzero;fill:url(#linear0);" d="M 11.90625 42.050781 L 35.722656 42.050781 L 35.722656 44.035156 L 11.90625 44.035156 Z M 11.90625 42.050781 "/>
<path style=" stroke:none;fill-rule:nonzero;fill:url(#radial0);" d="M 35.722656 42.050781 L 39.691406 42.050781 L 39.691406 40.066406 L 35.722656 40.066406 Z M 35.722656 42.050781 "/>
<path style=" stroke:none;fill-rule:nonzero;fill:url(#radial1);" d="M 11.90625 42.050781 L 7.9375 42.050781 L 7.9375 44.035156 L 11.90625 44.035156 Z M 11.90625 42.050781 "/>
<path style=" stroke:none;fill-rule:nonzero;fill:url(#radial2);" d="M 11.90625 42.050781 L 7.9375 42.050781 L 7.9375 40.066406 L 11.90625 40.066406 Z M 11.90625 42.050781 "/>
<path style=" stroke:none;fill-rule:nonzero;fill:url(#radial3);" d="M 35.722656 42.050781 L 39.691406 42.050781 L 39.691406 44.035156 L 35.722656 44.035156 Z M 35.722656 42.050781 "/>
<path style=" stroke:none;fill-rule:nonzero;fill:url(#linear1);" d="M 9.921875 4.34375 L 37.707031 4.34375 C 38.804688 4.34375 39.691406 5.234375 39.691406 6.328125 L 39.691406 40.066406 C 39.691406 41.164062 38.804688 42.050781 37.707031 42.050781 L 9.921875 42.050781 C 8.828125 42.050781 7.9375 41.164062 7.9375 40.066406 L 7.9375 6.328125 C 7.9375 5.234375 8.828125 4.34375 9.921875 4.34375 Z M 9.921875 4.34375 "/>
<path style="fill-rule:nonzero;fill:url(#linear2);stroke-width:11.338583;stroke-linecap:round;stroke-linejoin:miter;stroke:rgb(12.941177%,12.941177%,12.941177%);stroke-opacity:1;stroke-miterlimit:4;" d="M 574.275898 175.101398 C 603.249511 250.999666 611.595171 343.589254 564.670516 412.401584 C 485.622942 515.226416 527.823639 681.982154 647.969652 732.528511 C 759.61254 787.798826 906.527652 717.096913 935.501264 596.478504 C 970.458558 490.504366 900.22904 365.949325 798.821396 334.613733 C 728.906809 309.891683 679.305244 244.85852 661.196736 175.101398 Z M 1152.960824 571.126593 C 1028.563249 569.394474 921.329389 693.79205 946.99623 816.929904 C 965.577134 946.208904 1118.633392 1028.090853 1237.362218 975.497447 C 1311.843298 950.303001 1349.792432 876.766713 1375.459274 811.576084 C 1414.98306 743.078685 1500.17178 707.648996 1580.00668 715.049864 C 1588.509806 717.569309 1594.965882 716.939447 1600.004772 714.262538 L 1600.004772 619.468435 C 1561.740707 609.233192 1483.165529 633.955242 1449.467958 638.6792 C 1372.782364 658.834757 1299.718471 624.66479 1237.677148 587.345517 C 1212.797633 576.952808 1185.556139 571.598988 1158.78704 571.441523 C 1156.897457 571.284058 1154.850408 571.284058 1152.960824 571.126593 Z M 546.719473 811.103688 C 452.712697 810.158897 366.736651 883.53772 343.116858 969.04137 C 330.834566 983.528177 323.748628 998.644844 319.969461 1014.863769 L 319.969461 1158.78704 C 403.898459 1156.897457 458.696378 1232.165863 542.782841 1230.748676 C 671.904376 1240.826454 787.0115 1112.649711 761.029728 985.41776 C 744.810803 886.057165 651.276423 810.001431 551.285966 811.261154 C 549.711314 811.261154 548.294126 811.103688 546.719473 811.103688 Z M 967.309252 992.661163 C 840.077301 993.605955 737.88233 1127.766379 768.745527 1251.219163 C 782.287541 1329.321945 849.997614 1392.465525 920.069666 1413.723338 C 998.959775 1446.003722 1037.696235 1525.681157 1057.694326 1603.154077 C 1066.669848 1622.994703 1067.142244 1663.778212 1074.228181 1695.113804 L 1160.834089 1695.113804 C 1159.889297 1665.352865 1148.709262 1627.088801 1144.300234 1605.830987 C 1122.097628 1531.034976 1090.919502 1452.302333 1122.412559 1374.671947 C 1154.535477 1311.213437 1199.88548 1243.188433 1179.887388 1165.558047 C 1163.353533 1069.031827 1074.700577 992.661163 976.442239 992.818629 C 973.450398 992.661163 970.301093 992.661163 967.309252 992.661163 Z M 967.309252 992.661163 " transform="matrix(0.0248071,0,0,0.0248071,0,0)"/>
<path style=" stroke:none;fill-rule:nonzero;fill:rgb(0%,0%,0%);fill-opacity:0.196078;" d="M 9.921875 41.9375 C 8.824219 41.9375 7.9375 41.054688 7.9375 39.953125 L 7.9375 39.707031 C 7.9375 40.804688 8.824219 41.691406 9.921875 41.691406 L 37.707031 41.691406 C 38.804688 41.691406 39.691406 40.804688 39.691406 39.707031 L 39.691406 39.953125 C 39.691406 41.054688 38.804688 41.9375 37.707031 41.9375 Z M 9.921875 41.9375 "/>
<path style=" stroke:none;fill-rule:nonzero;fill:rgb(100%,100%,100%);fill-opacity:0.392157;" d="M 9.921875 4.457031 C 8.824219 4.457031 7.9375 5.339844 7.9375 6.441406 L 7.9375 6.6875 C 7.9375 5.589844 8.824219 4.703125 9.921875 4.703125 L 37.707031 4.703125 C 38.804688 4.703125 39.691406 5.589844 39.691406 6.6875 L 39.691406 6.441406 C 39.691406 5.339844 38.804688 4.457031 37.707031 4.457031 Z M 9.921875 4.457031 "/>
<path style=" stroke:none;fill-rule:nonzero;fill:rgb(12.941177%,12.941177%,12.941177%);fill-opacity:1;" d="M 9.921875 4.203125 C 8.746094 4.203125 7.796875 5.152344 7.796875 6.328125 L 7.796875 40.066406 C 7.796875 41.242188 8.746094 42.191406 9.921875 42.191406 L 37.707031 42.191406 C 38.882812 42.191406 39.832031 41.242188 39.832031 40.066406 L 39.832031 6.328125 C 39.832031 5.152344 38.882812 4.203125 37.707031 4.203125 Z M 9.921875 4.484375 L 37.707031 4.484375 C 38.730469 4.484375 39.550781 5.304688 39.550781 6.328125 L 39.550781 40.066406 C 39.550781 41.089844 38.730469 41.910156 37.707031 41.910156 L 9.921875 41.910156 C 8.898438 41.910156 8.078125 41.089844 8.078125 40.066406 L 8.078125 6.328125 C 8.078125 5.304688 8.898438 4.484375 9.921875 4.484375 Z M 9.921875 4.484375 "/>
</g>
</svg>
